X: 28179
T: Mrs Ryan's
R: polka
M: 2/4
K: Gmajor
|:DG BG|dG BG|F>G AB|cE FE|
DG BG|dG BG|F>G AB|cF G2:|
|:g2 f>e|dB GA/B/|cA FA|ed de/f/|
g2 f>e|dB GA/B/|cA FG|AG G2:|

